X: 36153
T: Scotch Mary
R: reel
M: 4/4
K: Adorian
AB|c ~E3 cd ed|c~E3 G2 AB|c ~E3 cd ed|cA (3BAG A2 AB|
c ~E3 cd ed|c~E3 G2 AB|c3d e3d|cA (3BAG A3d||
ea ag eg ed|Bd ef g2 fg|ea ag eg ed|cA (3BAG A3e|
ea ag eg ed|Bd ef g2 fg|af ge (3fed ed|cA (3BAG A2||

